!!!COM: Dueto, Antonio
!!!CDT: ~1545-~1602
!!!OTL: ANGIOLETTA cortese
!!!PTL: Il secondo libro de madrigali a quattro voci
!!!PPP: Venice
!!!PPR: Angelo Gardano
!!!PDT: 1586
!!!PUB-format:
!!!RISM: D 3655
!!!rime: 734
!!!AGN: Madrigal
!!!SCT: Trm0734b
!!!SCA: Trm0734b
!!!original-voices: 4
!!!extant-voices: 4
!!!complete: Y
!!!final: G
**kern	**text	**kern	**text	**kern	**text	**kern	**text
*part4	*part4	*part3	*part3	*part2	*part2	*part1	*part1
*staff4	*staff4	*staff3	*staff3	*staff2	*staff2	*staff1	*staff1
*Ivox	*	*Ivox	*	*Ivox	*	*Ivox	*
*I"Basso	*	*I"Tenore	*	*I"Alto	*	*I"Canto	*
*I'B	*	*I'T	*	*I'A	*	*I'C	*
*oclefF4	*	*oclefC4	*	*oclefC3	*	*oclefC1	*
*clefF4	*	*clefGv2	*	*clefGv2	*	*clefG2	*
*k[]	*	*k[]	*	*k[]	*	*k[]	*
*omet(C|)	*	*omet(C|)	*	*omet(C|)	*	*omet(C|)	*
*M2/1	*	*M2/1	*	*M2/1	*	*M2/1	*
=1	=1	=1	=1	=1	=1	=1	=1
2.G	An-	2.B	An-	2.d	An-	2.g	An-
4G	-gio-	4B	-gio-	4d	-gio-	4g	-gio-
4E	-let-	4B	-let-	4e	-let-	4g	-let-
2C	-ta	2c	-ta	2e	-ta	2g	-ta
4C	cor-	4c	cor-	4e	cor-	4g	cor-
=2	=2	=2	=2	=2	=2	=2	=2
2D	-te-	2A	-te-	2d	-te-	2f	-te-
2E	-se,	2G#X	-se,	2B	-se,	2e	-se,
2r	.	2r	.	2r	.	2r	.
2AA	O-	2c	O-	[2e	O-	[2a	O-
=3	=3	=3	=3	=3	=3	=3	=3
1E	-di,	1B	-di,	2e]	.	2a]	.
.	.	.	.	2e	-di,	2g#X	-di,
2r	.	2r	.	2r	.	2r	.
2D	O-	[2d	O-	2f	O-	[2a	O-
=4	=4	=4	=4	=4	=4	=4	=4
1A	-di	2d]	.	1e	-di	2a]	.
.	.	2c	-di	.	.	2a	-di
4A	dal	4e	dal	4a	dal	2.cc	dal
2F	ter-	2f	ter-	2a	ter-	.	.
4D	-zo	4f	-zo	4a	-zo	[4dd	ter-
=5	=5	=5	=5	=5	=5	=5	=5
4.E	cie-	2e	cie-	1g	cie-	4dd]	.
.	.	.	.	.	.	2cc	-zo
8F	.	.	.	.	.	.	.
2G	.	2d	-lo	.	.	.	.
.	.	.	.	.	.	4b	cie-
4C	-lo	2e	Le	4g	-lo	2cc	-lo
4c	Le	.	.	2g	Le	.	.
4B	mie	4d	mie	.	.	4r	.
[4A	cal-	[4c	cal-	4f	mie	[4cc	Le
=6	=6	=6	=6	=6	=6	=6	=6
4A]	.	8c]L	.	2e	cal-	4cc]	.
.	.	8dJ	.	.	.	.	.
4G	-de	4e	.	.	.	4b	mie
2F	pa-	4A	-de,	4f	-de	2.a	cal-
.	.	2c	Le	4f	pa-	.	.
2G	-ro-	.	.	2d	-ro-	.	.
.	.	4B	mie	.	.	2g	-de
2D	-le,	2A	cal-	[2d	-le,	.	.
.	.	.	.	.	.	4f	pa-
=7	=7	=7	=7	=7	=7	=7	=7
2r	.	4G	-de	4d]	.	2e	-ro-
.	.	4C	pa-	2c	Le	.	.
4r	.	2G	-ro-	.	.	1d	-le,
2G	<Le	.	.	4B	mie	.	.
.	.	4D	-le,	2A	cal-	.	.
4F	mie	2d	Le	.	.	.	.
2E	cal-	.	.	4G	-de	4r	.
.	.	4c	mie	4G	pa-	[4g	<Le
=8	=8	=8	=8	=8	=8	=8	=8
4D	-de	4B	cal-	2d	-ro-	4g]	.
4D	pa-	4A	-de,	.	.	4f	mie
2C	-ro-	4r	.	2G	-le,	2e	cal-
.	.	2c	Le	.	.	.	.
2GG	-le>	.	.	4r	.	4d	-de
.	.	4B	mie	2g	<Le	4d	pa-
2r	.	8AL	cal-	.	.	4.c	-ro-
.	.	8G	.	.	.	.	.
.	.	8A	.	4f	mie	.	.
.	.	8BJ	.	.	.	8d	.
=9	=9	=9	=9	=9	=9	=9	=9
1r	.	2c	.	2e	cal-	8eL	.
.	.	.	.	.	.	8f	.
.	.	.	.	.	.	8g	.
.	.	.	.	.	.	8e	.
.	.	4B-	-de	4d	-de	8f	.
.	.	.	.	.	.	8e	.
.	.	4A	pa-	2c	pa-	8d	.
.	.	.	.	.	.	8cJ	.
2r	.	2G	-ro-	.	.	2d	.
.	.	.	.	4B	-ro-	.	.
2C	e 'l	4C	-le e 'l	2c	-le>	2e	-le>
.	.	4c	vi-	.	.	.	.
=10	=10	=10	=10	=10	=10	=10	=10
4D	vi-	4B	-vo	1r	.	1r	.
4E	-vo	4G	ze-	.	.	.	.
4.F	ze-	8AL	.	.	.	.	.
.	.	8BJ	.	.	.	.	.
.	.	2c	.	.	.	.	.
8E	.	.	.	.	.	.	.
2D	.	.	.	2r	.	2r	.
.	.	4B	.	.	.	.	.
4C	-lo,	2c	-lo,	4r	.	4r	.
4C	<e 'l	.	.	4e	e' l	4cc	e' l
=11	=11	=11	=11	=11	=11	=11	=11
4G	vi-	1r	.	4d	vi-	4b	vi-
4E	-vo	.	.	4e	-vo	4g#X	-vo
2A	ze-	.	.	8fL	ze-	8aL	ze-
.	.	.	.	8e	.	8bJ	.
.	.	.	.	8d	.	2cc	.
.	.	.	.	8cJ	.	.	.
2G	-lo,>	2r	.	2d	.	.	.
.	.	.	.	.	.	4b	.
4r	.	2c	e 'l	4e	-lo,	4cc	-lo,
4C	<e 'l	.	.	4e	<e' l	4gni	<e' l
=12	=12	=12	=12	=12	=12	=12	=12
4G	vi-	4B	vi-	4d	vi-	4gni	vi-
4A	-vo	4c	-vo	2c	-vo	4f#X	-vo
2G	ze-	2d	ze-	.	.	2g	ze-
.	.	.	.	4B	ze-	.	.
2C	-lo,>	2e	-lo,	2c	-lo,>	2g	-lo,>
2r	.	2r	.	2r	.	2r	.
=13	=13	=13	=13	=13	=13	=13	=13
1C	E	1e	E	1g	E	1cc	E
2G	por-	2d	por-	2g	por-	2b	por-
4E	-ta i-	4e	-ta i-	4g	-ta i-	4b	-ta i-
[4F	-nan-	[4c	-nan-	[4f	-nan-	[4a	-nan-
=14	=14	=14	=14	=14	=14	=14	=14
4F]	.	4c]	.	4f]	.	4a]	.
4C	-zi a	4c	-zi a	2e	-zi a	4g	-zi a
2D	Gio-	2A	Gio-	.	.	2f	Gio-
.	.	.	.	2d	Gio-	.	.
2.AA	-ve	2A	-ve	.	.	2.e	-ve
.	.	.	.	2c#X	-ve	.	.
.	.	2A	le	.	.	.	.
4D	le	.	.	4d	le	4f#X	le
=15	=15	=15	=15	=15	=15	=15	=15
2G	mie	2B	mie	4d	mie	2g	mie
.	.	.	.	4e	pre-	.	.
2F	pre-	2c	pre-	1f	-ghie-	2a	pre-
2BB-	-ghie-	4d	-ghie-	.	.	2b-	-ghie-
.	.	4d	-re	.	.	.	.
2C	-re	4.c	no-	2e	-re	4a	-re
.	.	.	.	.	.	[4g	no-
.	.	8B	.	.	.	.	.
=16	=16	=16	=16	=16	=16	=16	=16
1D	no-	1A	.	1d	no-	4g]	.
.	.	.	.	.	.	8f#iL	.
.	.	.	.	.	.	8eJ	.
.	.	.	.	.	.	2f#i	.
4GG	-ve	2G	-ve	4d	-ve	1g	-ve
4G	S&igrave;	.	.	4B	S&igrave;	.	.
4G	che	4r	.	4B	che	.	.
4G	da	4d	S&igrave;	4B	da	.	.
=17	=17	=17	=17	=17	=17	=17	=17
2F	lui	4d	che	4A	lui	2r	.
.	.	4d	da	4A	fien	.	.
4E	fien	4c	lui	4G	con	4r	.
2E	con	2B	fien	4G	pie-	4g	S&igrave;
.	.	.	.	4B	-ta-	4g	che
4E	pie-	4G	con	4c#X	-d'in-	4g	da
2D	-ta-	4A	pie-	2d	-te-	2f	lui
.	.	[4A	-ta-	.	.	.	.
=18	=18	=18	=18	=18	=18	=18	=18
2AA	-d'in-	4A]	.	4cni	-se	4e	fien
.	.	4A	-d'in-	4c	<S&igrave;	2e	con
8CL	-te-	4.G	-te-	4c	che	.	.
8D	.	.	.	.	.	.	.
8E	.	.	.	4c	da	4e	pie-
8FJ	.	8A	.	.	.	.	.
4G	.	8BL	.	4B	lui	4d	-ta-
.	.	8GJ	.	.	.	.	.
4A	.	2c	.	4A	fien	4c	-d'in-
2G	-se	.	.	4d	con	2g	-te-
.	.	4B	.	4d	pie-	.	.
=19	=19	=19	=19	=19	=19	=19	=19
4r	.	4c	-se,	4e	-ta-	4g	-se,
4A	<S&igrave;	4e	<S&igrave;	4c	-d'in-	4cc	S&igrave;
4A	che	2e	che	8cL	-te-	4cc	che
.	.	.	.	8d	.	.	.
4A	da	.	.	8e	.	4cc	da
.	.	.	.	8fJ	.	.	.
2G	lui	4e	da	4g	.	2b	lui
.	.	2d	lui	4d	-se>	.	.
4F	fien	.	.	4r	.	4a	fien
[4F	con	4c	fien	[4f	con	[4a	con
=20	=20	=20	=20	=20	=20	=20	=20
4F]	.	2c	con	4f]	.	4a]	.
4F	pie-	.	.	4f	pie-	4a	pie-
2C	-ta-	2c	pie-	2e	-ta-	2g	-ta-
2D	-d'in-	4A	-ta-	2d	-d'in-	2f	-d'in-
.	.	4A	-d'in-	.	.	.	.
2E	-te-	2G#X	-te-	2B	-te-	2e	-te-
=21	=21	=21	=21	=21	=21	=21	=21
2AA	-se,>	2A	-se,>	2c#X	-se	2e	-se,
4r	.	4r	.	4r	.	4r	.
4F	<S&igrave;	4c	<S&igrave;	4f	S&igrave;	4a	<S&igrave;
4F	che	4c	che	4f	che	4a	che
4F	da	4c	da	4f	da	4a	da
2C	lui	2c	lui	2e	lui	2g	lui
=22	=22	=22	=22	=22	=22	=22	=22
4D	fien	4A	fien	4d	fien	4f#X	fien
2D	con	2A	con	2d	con	2f#i	con
4G	pie-	4B	pie-	4d	pie-	4g	pie-
2F	-ta-	2c	-ta-	2f	-ta-	2.a	-ta-
2C	-d'in-	2c	-d'in-	2e	-d'in-	.	.
.	.	.	.	.	.	[4g	-d'in-
=23	=23	=23	=23	=23	=23	=23	=23
2D	-te-	2A	-te-	2d	-te-	4g]	.
.	.	.	.	.	.	4f#i	.
2G	-se,>	2B	-se,>	2d	-se	2g	-se,>
4r	.	4r	.	4r	.	4r	.
2C	con	2c	con	2e	con	2g	con
4D	pie-	4A	pie-	4d	pie-	4fni	pie-
=24	=24	=24	=24	=24	=24	=24	=24
2E	-ta-	2G	-ta-	2.B	-ta-	2e	-ta-
2E	-d'in-	1G	-d'in-	.	.	2e	-d'in-
.	.	.	.	4c#X	-d'in-	.	.
1D	-te-	.	.	1d	-te-	1a	-te-
.	.	2F#i	.	.	.	.	.
=25	=25	=25	=25	=25	=25	=25	=25
0GGl	-se.	0Gl	-se.	0dl	-se.	0bl	-se.
==	==	==	==	==	==	==	==
*-	*-	*-	*-	*-	*-	*-	*-
!!!system-decoration: [*]
!!!RDF**kern: i = editorial accidental
!!!RDF**kern: l = terminal long
!!!ENC: Emiliano Ricciardi
!!!END: 2012
!!!EED: Ricciardi, Emiliano
!!!EEV: 2013/08/20
!!!YEC: Copyright 2013 Emiliano Ricciardi, All Rights Reserved
!!!ONB: Translated from MusicXML on 2013/08/19 and edited by Craig Stuart Sapp
!!@@BEGIN:	VERSEDATA
!!@SOLERTI:	734
!!@CATALOGNUM:	Trm0734
!!@LAST_MODIFIED: 2020/07/12
!!@TITLE:		<span class="name">Angioletta</span> cortese
!!@GENRE:		madrigale
!!@MANUSRC:	I<sub>4</sub>, V<sub>10</sub>
!!@PRINTSRC:	10, 16, 21, 25, 25a), 30, 34, 68, 141, 166, 169
!!@@BEGIN:	VERSES
!!@ABOUTIT:	[Al signor Guido Coccapani per una donna di nome Angelica amata dal duca di Ferrara.]
!!@ABOUTEN:	[To mister Guido Coccapani for a woman named Angelica loved by the duke of Ferrara.]
!!@EDITOR:	Solerti, Angelo
!!@EDITION_TITLE: Le Rime di Torquato Tasso
!!@EDITION_LOC:	Bologna
!!@EDITION_PUB:	Romagnoli-Dall’Acqua
!!@EDITION_DATE:  1898-1902
!!@EDITION_VOL:	3
!!@EDITION_PAGE:  287
!!@TRANSLATOR:	Emiliano Ricciardi and Amyrose McCue Gill
!!@VERSE:
!!	<span class="name">Angioletta</span> cortese,
!!	Odi dal terzo cielo
!!	Le mie calde parole e 'l vivo zelo,
!!	E porta innanzi a Giove
!!	Le mie preghiere nove
!!	Sì che da lui sien con pietade intese.
!!@TVERSE:
!!	Gracious little angel,
!!	Hear from the third heaven
!!	My warm words and lively zeal,
!!	And bring before Jupiter
!!	My new prayers
!!	So that by him they may with pity be heard.
!!@@END:		VERSES
!!@OTHER_CRIT_ED:   None
!!@ATTRIBUTION_ABOUT:	Secure
!!@DATING:	In or before 1582
!!@DEDICATEE:	Coccapani, Guido
!!@DEDICATEE_INFO:	(on behalf of)?
!!@COMMENTARY:
!!@@END:		VERSEDATA
!!@@BEGIN:	SETTING
!!@CATALOGNUM:	Trm0734b
!!@RIMETITLE:	ANGIOLETTA cortese
!!@SOLERTI:	734
!!@COMPOSER:	Dueto, Antonio
!!@PRINCEPSTITLE:	Il secondo libro de madrigali a quattro voci
!!@PRINCEPSLOC:	Venetia
!!@NORMLOC:	Venice
!!@NORMPUB:	Angelo Gardano
!!@NORMPUBSHORT:	Gardano
!!@PRINCEPSPUB:	Gardano
!!@PRINCEPSYEAR:	1586
!!@PRINCEPSRISM:	D 3655
!!@REPRINTS:	
!!@OVOICES:	4
!!@EXTANTVOICES:	4
!!@PARTBOOKS:	
!!@EXTPARTBOOKS:	
!!@OCLEFS:	C1,C3,C4,F4
!!@OMENSURATION:	Cut-C
!!@OKEYSIG:	-
!!@FINAL:	G
!!@TIMPEDITOR:	Ricciardi, Emiliano
!!@NOTE:		
!!@@END:		SETTING
